X: 64
T:The Cairding Ot.
M:4/4
L:1/8
Z:abc by Bruce Osborne - bosborne@kos.net
K:A
E2|A2 AB cBcd|e2 af ecAc|dcdf ecBA|GABc B3 c|!
dcde fgaf|ecBA AGFE|A2 AB ceBd|c2 A2 A2:|!
|:af|ecAc e2 af|ecAc e2 c2|dcde fgaf|g2 e2 e2 c2|!
dcde fgaf|ecBA AGFE|A2 AB ceBd|c2 A2 A2:|!
